client/src/assets/homepage.svg

<svg width="20" height="20" viewBox="0 0 20 20" fill="none" xmlns="http://www.w3.org/2000/svg">
<path d="M19.8169 9.24389L12.0442 1.47077C10.9168 0.343808 9.08319 0.343808 7.95584 1.47077L0.183107 9.24389C-0.0610357 9.48804 -0.0610357 9.88374 0.183107 10.1279C0.42686 10.372 0.822957 10.372 1.06671 10.1279L1.56242 9.63218V17.5776C1.56242 18.57 2.36692 19.3745 3.35931 19.3745H6.48434C6.70008 19.3745 6.87497 19.1996 6.87497 18.9838V13.2025C6.87497 12.1238 7.74943 11.2494 8.82811 11.2494H11.1719C12.2506 11.2494 13.125 12.1238 13.125 13.2025V18.9838C13.125 19.1996 13.2999 19.3745 13.5157 19.3745H16.6407C17.6331 19.3745 18.4376 18.57 18.4376 17.5776V9.63218L18.9333 10.1279C19.0552 10.2498 19.2153 10.3111 19.3751 10.3111C19.5349 10.3111 19.695 10.2498 19.8169 10.1279C20.061 9.88374 20.061 9.48804 19.8169 9.24389Z" fill="white"/>
</svg>

<svg width="20" height="20" fill="none" xmlns="http://www.w3.org/2000/svg"><path d="M19.817 9.244L12.044 1.47a2.895 2.895 0 00-4.088 0L.183 9.244a.625.625 0 00.884.884l.495-.496v7.946c0 .992.805 1.797 1.797 1.797h3.125a.39.39 0 00.391-.391v-5.782c0-1.078.874-1.953 1.953-1.953h2.344c1.079 0 1.953.875 1.953 1.954v5.78c0 .217.175.392.39.392h3.126c.992 0 1.797-.805 1.797-1.797V9.632l.495.496a.623.623 0 00.884 0 .625.625 0 000-.884z" fill="#fff"/></svg>
